static/icons/makers.svg

<svg width="86" height="86" viewBox="0 0 86 86" fill="none" xmlns="http://www.w3.org/2000/svg">
<path d="M6.66667 1.73325C0.533333 4.93325 0 7.73325 0 43.0666C0 76.6666 0.4 79.9999 5.2 83.5999C6.8 84.7999 17.0667 85.1999 42.8 85.3333H78.2667L81.8667 81.7333L85.4667 78.1333L85.0667 42.3999C84.6667 7.33325 84.6667 6.66658 81.6 3.73325C78.6667 0.666581 78 0.666581 44.2667 0.266581C18.4 -8.58307e-05 9.2 0.399914 6.66667 1.73325ZM66.5333 21.9999C76 42.2666 75.8667 39.7332 68 58.3999C62.5333 71.1999 60.5333 74.6666 58.8 74.1333C57.6 73.7333 49.7333 73.0666 41.2 72.6666C32.6667 72.1333 25.0667 71.3333 24.4 70.7999C23.7333 70.3999 20.2667 63.1999 16.6667 54.7999L10.1333 39.5999L13.7333 32.7999C15.7333 29.0666 19.2 23.1999 21.3333 19.7332L25.2 13.5999L38.2667 12.6666C45.4667 12.2666 52 11.5999 52.6667 11.3332C53.4667 11.0666 55.6 10.7999 57.7333 10.7999C61.0667 10.6666 61.8667 11.7332 66.5333 21.9999Z" fill="white"/>
<path d="M35.0669 26.5332C28.4002 27.3332 27.8669 27.7332 23.8669 33.9999C19.2002 41.3332 19.2002 41.1999 26.1335 56.6666L29.2002 63.7332L39.6002 64.6666C45.3335 65.0666 51.4669 65.5999 53.2002 65.7332C56.0002 65.9999 56.9335 64.7999 60.2669 56.7999C62.2669 51.7332 64.0002 46.7999 64.0002 45.7332C64.0002 44.7999 61.8669 39.7332 59.3335 34.6666L54.6669 25.3332L48.2669 25.5999C44.8002 25.7332 38.8002 26.1332 35.0669 26.5332Z" fill="white"/>
</svg>

<svg width="86" height="86" fill="none" xmlns="http://www.w3.org/2000/svg"><path d="M6.667 1.733C.533 4.933 0 7.733 0 43.067 0 76.667.4 80 5.2 83.6c1.6 1.2 11.867 1.6 37.6 1.733h35.467l3.6-3.6 3.6-3.6-.4-35.733c-.4-35.067-.4-35.733-3.467-38.667C78.667.667 78 .667 44.267.267 18.4 0 9.2.4 6.667 1.733ZM66.533 22C76 42.267 75.867 39.733 68 58.4c-5.467 12.8-7.467 16.267-9.2 15.733-1.2-.4-9.067-1.066-17.6-1.466-8.533-.534-16.133-1.334-16.8-1.867-.667-.4-4.133-7.6-7.733-16l-6.534-15.2 3.6-6.8c2-3.733 5.467-9.6 7.6-13.067L25.2 13.6l13.067-.933c7.2-.4 13.733-1.067 14.4-1.334.8-.266 2.933-.533 5.066-.533 3.334-.133 4.134.933 8.8 11.2Z" fill="#fff"/><path d="M35.067 26.533c-6.667.8-7.2 1.2-11.2 7.467-4.667 7.333-4.667 7.2 2.267 22.667l3.066 7.066 10.4.934c5.733.4 11.867.933 13.6 1.066C56 66 56.933 64.8 60.267 56.8c2-5.067 3.733-10 3.733-11.067 0-.933-2.133-6-4.666-11.066l-4.667-9.334-6.4.267c-3.467.133-9.467.533-13.2.933Z" fill="#fff"/></svg>
